src/icons/italic.svg

<svg xmlns="http://www.w3.org/2000/svg" width="24" height="24" fill="none"><path fill="currentColor" d="M10 2h8v2h-3l-4 16h3v2H6v-2h3l4-16h-3z"/></svg>

<svg width="24" height="24" viewBox="0 0 24 24" fill="none" xmlns="http://www.w3.org/2000/svg">
<path d="M10 2H18V4L15 4L11 20H14V22H6V20H9L13 4L10 4V2Z" fill="black"/>
</svg>
